shiny.svg

<?xml version="1.0" encoding="UTF-8" standalone="no"?><!DOCTYPE svg PUBLIC "-//W3C//DTD SVG 1.1//EN" "http://www.w3.org/Graphics/SVG/1.1/DTD/svg11.dtd"><svg width="100%" height="100%" viewBox="0 0 500 500" version="1.1" xmlns="http://www.w3.org/2000/svg" xmlns:xlink="http://www.w3.org/1999/xlink" xml:space="preserve" xmlns:serif="http://www.serif.com/" style="fill-rule:evenodd;clip-rule:evenodd;stroke-linecap:round;stroke-linejoin:round;stroke-miterlimit:1.5;"><g id="Shiny"><path d="M10.974,382.994c51.587,3.093 89.975,26.555 117.524,66.745c15.349,-40.669 46.875,-66.168 91.811,-79.09c34.653,-8.567 69.083,-14.159 103.322,-17.203c40.152,-1.106 73.565,-9.903 96.378,-30.8c29.5,-24.756 54.268,-52.322 71.686,-84.25c1.77,-3.498 2.867,-7.42 2.98,-11.962c1.142,-7.52 -1.439,-10.929 -9.875,-7.871c-11.537,7.376 -20.72,16.244 -29.543,25.34c-6.554,5.729 -13.173,10.607 -19.94,13.535c5.586,-26.564 11.289,-53.062 20.852,-77.437c2.038,-3.977 4.632,-7.61 7.95,-10.798l-18.485,0.825c-5.504,1.193 -9.448,5.162 -12.365,10.963l-9.108,28.816c-4.902,10.978 -11.028,20.942 -17.564,30.567c-10.408,12.187 -16.038,12.097 -15.474,-3.903c3.03,-24.481 11.373,-44.539 23.44,-61.496c0.368,-3.198 -1.718,-4.119 -4.919,-4.007l-9.007,1.889c-7.371,2.031 -12.453,6.953 -16.081,13.711c-4.362,9.21 -7.394,18.716 -9.981,28.321c-3.949,9.536 -7.983,19.044 -14.285,27.799l-5.753,5.858c-7.085,8.955 -10.386,6.857 -9.903,-6.294l11.797,-49.206c0.732,-10.632 -5.964,-14.634 -18.062,-14.492c-10.96,2.621 -20.159,8.677 -28.11,17.167l0.209,-8.19c0.618,-3.164 -1.095,-4.484 -4.738,-4.277l-17.222,-0.346c0.896,11.299 0.038,22.442 -2.342,33.45l-14.631,29.109l-9.508,13.745c-8.692,8.921 -12.609,7.77 -11.523,-3.937c2.336,-19.4 8.82,-38.334 17.438,-57.027l5.442,-7.877l-16.289,0.129c-5.169,1.931 -8.773,5.729 -11.382,10.714c-5.673,9.844 -8.923,22.217 -12.289,34.468c-5.201,10.237 -10.434,20.392 -16.501,28.376l-4.788,4.715c-6.601,6.646 -9.77,5.098 -9.169,-5.448l11.889,-51.05c1.234,-9.999 -2.431,-15.164 -11.414,-15.082c-8.531,-0.24 -15.741,3.109 -22.472,7.756c15.314,-21.783 28.362,-44.283 32.935,-69.464c1.268,-11.564 -3.408,-16.337 -14.028,-14.321c-7.982,0.842 -14.907,5.979 -21.313,13.224c-23.422,43.518 -38.847,103.257 -50.877,162.627l21.979,-0.216l10.645,-50.834c5.503,-14.367 13.345,-25.45 23.625,-33.114c5.88,-1.839 9.621,-1.217 8.874,4.574l-8.938,35.135c-2.235,8.65 -3.041,17.619 -2.633,26.86c2.042,14.629 9.456,17.806 20.286,13.7c12.608,-6.322 20.776,-18.873 27.297,-33.517l1.967,15.01c2.2,11.926 9.234,14.603 19.826,10.471c9.025,-6.771 16.209,-15.1 21.699,-24.865l-2.871,18.144l21.196,-0.712c3.365,-20.085 7.391,-40.092 15.211,-59.651c3.245,-7.288 6.89,-14.12 12.306,-18.941c2.571,-3.171 5.651,-5.165 9.161,-6.161c7.294,-1.409 8.754,0.933 6.223,5.842c-4.511,18.91 -8.332,38.178 -10.182,58.468c-0.786,18.12 7.755,21.332 21.943,15.519c10.834,-6.847 18.263,-18.744 24.54,-31.927c1.516,24.627 10.742,33.624 31.819,18.598l14.301,-16.589c-0.16,7.655 -2.131,15.659 -4.406,22.699c-10.917,1.97 -21.606,3.422 -32.718,7.269c-8.686,2.961 -14.904,8.909 -17.953,18.692c-0.573,13.885 8.378,19.381 24.339,18.703c9.802,0.018 18.494,-3.669 26.736,-8.856c10.342,-11.06 17.498,-22.2 18.689,-33.489c16.046,-7.105 29.587,-17.501 43.033,-28.021l1.355,7.712l-53.213,59.411c-17.151,12.484 -37.645,21.519 -64.266,24.235c-35.907,5.737 -74.152,7.643 -113.108,8.385c-96.684,1.248 -177.732,11.205 -233.474,43.445Zm396.139,-106.338c-1.48,7.295 -4.695,13.484 -9.576,18.611c-2.552,3.136 -5.777,5.445 -10.176,6.311c-2.049,0.591 -4.068,0.434 -6.066,-0.233c-3.283,-0.788 -5.519,-2.931 -6.988,-6.065c-1.403,-2.904 -1.451,-5.912 -0.113,-9.028c8.479,-7.742 20.79,-9.417 32.919,-9.596Zm-236.324,-73.644c12.399,-18.659 23.043,-38.498 31.345,-60.006c1.7,-3.959 2.414,-8.232 2.045,-12.849c-0.897,-1.432 -2.171,-1.978 -4.237,-0.667c-15.37,23.738 -23.484,47.894 -29.153,73.522Z" style="fill:#4187c3;stroke:#4187c3;stroke-width:1px;"/><path d="M129.311,178.176c6.143,-2.228 9.913,-6.924 12.256,-13.103c1.202,-3.232 1.365,-6.525 -0.335,-9.929c-3.964,-6.362 -11.145,-10.407 -20.391,-12.964c-8.525,-3.08 -17.15,-3.269 -25.867,-0.828c-15.633,3.036 -25.847,15.581 -32.073,35.126c-1.589,7.767 -1.896,15.424 0.561,22.845c6.892,17.776 17.853,31.494 30.275,43.755c5.352,6.36 8.426,13.396 9.167,21.126c1.154,10.649 -2.45,19.122 -11.662,25.03c-7.02,6.703 -13.977,7.241 -20.899,4.415c-5.24,-3.443 -10.097,-8.547 -14.42,-15.961c-3.031,-6.326 -3.556,-13.507 -3.676,-21.566c-1.141,-2.797 -3.226,-3.034 -5.87,-1.76c-5.182,4.678 -8.357,10.3 -10.549,16.385c-0.63,4.407 -0.735,8.144 -0.27,11.153c2.323,9.089 7.443,15.816 17.18,18.645c8.941,2.586 17.929,2.366 26.946,0.387c14.489,-1.1 26.376,-6.921 36.146,-16.587c11.181,-11.681 13.888,-25.622 10.294,-41.244c-3.233,-11.385 -11.679,-24.352 -25.688,-39.004c-7.36,-5.689 -12.495,-13.398 -16.108,-22.489c-0.107,-8.008 1.853,-15.455 5.364,-22.479c0.917,-2.428 2.744,-4.43 5.526,-5.987c7.675,-2.381 13.372,-1.777 17.799,0.742c3.33,1.356 5.112,3.591 5.763,6.467l3.017,13.808c1.436,4.505 4.028,5.583 7.514,4.017" style="fill:#4187c3;stroke:#4187c3;stroke-width:1px;"/><path d="M261.642,162.087c-2.133,13.055 5.973,17.562 15.706,7.581l0.845,-1.919c1.149,-13.33 -5.344,-15.626 -15.764,-7.423l-0.787,1.761" style="fill:#4187c3;stroke:#4187c3;stroke-width:1px;"/></g></svg>

<?xml version="1.0" encoding="UTF-8" standalone="no"?>
<!DOCTYPE svg PUBLIC "-//W3C//DTD SVG 1.1//EN" "http://www.w3.org/Graphics/SVG/1.1/DTD/svg11.dtd">
<svg width="100%" height="100%" viewBox="0 0 500 500" version="1.1" xmlns="http://www.w3.org/2000/svg" xmlns:xlink="http://www.w3.org/1999/xlink" xml:space="preserve" xmlns:serif="http://www.serif.com/" style="fill-rule:evenodd;clip-rule:evenodd;stroke-linecap:round;stroke-linejoin:round;stroke-miterlimit:1.5;">
    <g id="Shiny">
        <path d="M10.974,382.994C62.561,386.087 100.949,409.549 128.498,449.739C143.847,409.07 175.373,383.571 220.309,370.649C254.962,362.082 289.392,356.49 323.631,353.446C363.783,352.34 397.196,343.543 420.009,322.646C449.509,297.89 474.277,270.324 491.695,238.396C493.465,234.898 494.562,230.976 494.675,226.434C495.817,218.914 493.236,215.505 484.8,218.563C473.263,225.939 464.08,234.807 455.257,243.903C448.703,249.632 442.084,254.51 435.317,257.438C440.903,230.874 446.606,204.376 456.169,180.001C458.207,176.024 460.801,172.391 464.119,169.203L445.634,170.028C440.13,171.221 436.186,175.19 433.269,180.991L424.161,209.807C419.259,220.785 413.133,230.749 406.597,240.374C396.189,252.561 390.559,252.471 391.123,236.471C394.153,211.99 402.496,191.932 414.563,174.975C414.931,171.777 412.845,170.856 409.644,170.968L400.637,172.857C393.266,174.888 388.184,179.81 384.556,186.568C380.194,195.778 377.162,205.284 374.575,214.889C370.626,224.425 366.592,233.933 360.29,242.688L354.537,248.546C347.452,257.501 344.151,255.403 344.634,242.252L356.431,193.046C357.163,182.414 350.467,178.412 338.369,178.554C327.409,181.175 318.21,187.231 310.259,195.721L310.468,187.531C311.086,184.367 309.373,183.047 305.73,183.254L288.508,182.908C289.404,194.207 288.546,205.35 286.166,216.358L271.535,245.467L262.027,259.212C253.335,268.133 249.418,266.982 250.504,255.275C252.84,235.875 259.324,216.941 267.942,198.248L273.384,190.371L257.095,190.5C251.926,192.431 248.322,196.229 245.713,201.214C240.04,211.058 236.79,223.431 233.424,235.682C228.223,245.919 222.99,256.074 216.923,264.058L212.135,268.773C205.534,275.419 202.365,273.871 202.966,263.325L214.855,212.275C216.089,202.276 212.424,197.111 203.441,197.193C194.91,196.953 187.7,200.302 180.969,204.949C196.283,183.166 209.331,160.666 213.904,135.485C215.172,123.921 210.496,119.148 199.876,121.164C191.894,122.006 184.969,127.143 178.563,134.388C155.141,177.906 139.716,237.645 127.686,297.015L149.665,296.799L160.31,245.965C165.813,231.598 173.655,220.515 183.935,212.851C189.815,211.012 193.556,211.634 192.809,217.425L183.871,252.56C181.636,261.21 180.83,270.179 181.238,279.42C183.28,294.049 190.694,297.226 201.524,293.12C214.132,286.798 222.3,274.247 228.821,259.603L230.788,274.613C232.988,286.539 240.022,289.216 250.614,285.084C259.639,278.313 266.823,269.984 272.313,260.219L269.442,278.363L290.638,277.651C294.003,257.566 298.029,237.559 305.849,218C309.094,210.712 312.739,203.88 318.155,199.059C320.726,195.888 323.806,193.894 327.316,192.898C334.61,191.489 336.07,193.831 333.539,198.74C329.028,217.65 325.207,236.918 323.357,257.208C322.571,275.328 331.112,278.54 345.3,272.727C356.134,265.88 363.563,253.983 369.84,240.8C371.356,265.427 380.582,274.424 401.659,259.398L415.96,242.809C415.8,250.464 413.829,258.468 411.554,265.508C400.637,267.478 389.948,268.93 378.836,272.777C370.15,275.738 363.932,281.686 360.883,291.469C360.31,305.354 369.261,310.85 385.222,310.172C395.024,310.19 403.716,306.503 411.958,301.316C422.3,290.256 429.456,279.116 430.647,267.827C446.693,260.722 460.234,250.326 473.68,239.806L475.035,247.518L421.822,306.929C404.671,319.413 384.177,328.448 357.556,331.164C321.649,336.901 283.404,338.807 244.448,339.549C147.764,340.797 66.716,350.754 10.974,382.994ZM407.113,276.656C405.633,283.951 402.418,290.14 397.537,295.267C394.985,298.403 391.76,300.712 387.361,301.578C385.312,302.169 383.293,302.012 381.295,301.345C378.012,300.557 375.776,298.414 374.307,295.28C372.904,292.376 372.856,289.368 374.194,286.252C382.673,278.51 394.984,276.835 407.113,276.656ZM170.789,203.012C183.188,184.353 193.832,164.514 202.134,143.006C203.834,139.047 204.548,134.774 204.179,130.157C203.282,128.725 202.008,128.179 199.942,129.49C184.572,153.228 176.458,177.384 170.789,203.012Z" style="fill:rgb(65,135,195);stroke:rgb(65,135,195);stroke-width:1px;"/>
        <path d="M129.311,178.176C135.454,175.948 139.224,171.252 141.567,165.073C142.769,161.841 142.932,158.548 141.232,155.144C137.268,148.782 130.087,144.737 120.841,142.18C112.316,139.1 103.691,138.911 94.974,141.352C79.341,144.388 69.127,156.933 62.901,176.478C61.312,184.245 61.005,191.902 63.462,199.323C70.354,217.099 81.315,230.817 93.737,243.078C99.089,249.438 102.163,256.474 102.904,264.204C104.058,274.853 100.454,283.326 91.242,289.234C84.222,295.937 77.265,296.475 70.343,293.649C65.103,290.206 60.246,285.102 55.923,277.688C52.892,271.362 52.367,264.181 52.247,256.122C51.106,253.325 49.021,253.088 46.377,254.362C41.195,259.04 38.02,264.662 35.828,270.747C35.198,275.154 35.093,278.891 35.558,281.9C37.881,290.989 43.001,297.716 52.738,300.545C61.679,303.131 70.667,302.911 79.684,300.932C94.173,299.832 106.06,294.011 115.83,284.345C127.011,272.664 129.718,258.723 126.124,243.101C122.891,231.716 114.445,218.749 100.436,204.097C93.076,198.408 87.941,190.699 84.328,181.608C84.221,173.6 86.181,166.153 89.692,159.129C90.609,156.701 92.436,154.699 95.218,153.142C102.893,150.761 108.59,151.365 113.017,153.884C116.347,155.24 118.129,157.475 118.78,160.351L121.797,174.159C123.233,178.664 125.825,179.742 129.311,178.176" style="fill:rgb(65,135,195);stroke:rgb(65,135,195);stroke-width:1px;"/>
        <path d="M261.642,162.087C259.509,175.142 267.615,179.649 277.348,169.668L278.193,167.749C279.342,154.419 272.849,152.123 262.429,160.326L261.642,162.087" style="fill:rgb(65,135,195);stroke:rgb(65,135,195);stroke-width:1px;"/>
    </g>
</svg>
